48x48/places/folder-breeze-java.svg

<svg xmlns="http://www.w3.org/2000/svg" width="48" height="48" version="1"><rect style="opacity:.2" width="40" height="26" x="4" y="17" rx="2" ry="2"/><path style="fill:#147eb8" d="M4 34c0 1.108.892 2 2 2h36c1.108 0 2-.892 2-2V12c0-1.108-.892-2-2-2H24c-3 0-4-4-7-4H6c-1.108 0-2 .892-2 2"/><rect style="opacity:.2" width="40" height="26" x="4" y="15" rx="2" ry="2"/><rect style="fill:#f4f4f7" width="36" height="16" x="6" y="13" rx="2" ry="2"/><rect style="fill:#57b8ec" width="40" height="26" x="4" y="16" rx="2" ry="2"/><path style="opacity:.1;fill:#f4f4f7" d="M6 6c-1.108 0-2 .892-2 2v1c0-1.108.892-2 2-2h11c3 0 4 4 7 4h18c1.108 0 2 .892 2 2v-1c0-1.108-.892-2-2-2H24c-3 0-4-4-7-4z"/><path style="fill:#106796" d="M22.172 21s.824.465.242 1.688c-.881 1.842.813 2.263.813 2.263s-.538-.432.179-1.953C24.199 21.313 22.172 21 22.172 21zm3.199 1.84s-1.642.63-.584 2.351c.7 1.141-.076 1.707-.076 1.707s1.985-.563 1.027-2.138c-.86-1.424-.367-1.92-.367-1.92zm-4.728.047s-1.438 1.095-.014 2.441c.941.896.324 1.672.324 1.672s1.783-1.133.494-2.371c-1.163-1.117-.804-1.742-.804-1.742zm.31 4.113H17l2 8h8l.275-1.098c.233.058.474.098.725.098a3 3 0 0 0 3-3c0-1.406-.97-2.577-2.275-2.902L29 27zm7.531 2.062a1 2 15 0 1 .034.006 1 2 15 0 1 .449 2.192 1 2 15 0 1-1.451 1.678z"/></svg>

<svg xmlns="http://www.w3.org/2000/svg" width="48" height="48" version="1">
 <rect style="opacity:0.2" width="40" height="26" x="4" y="17" rx="2" ry="2"/>
 <path style="fill:#147eb8" d="M 4,34 C 4,35.108 4.892,36 6,36 H 42 C 43.108,36 44,35.108 44,34 V 12 C 44,10.892 43.108,10 42,10 H 24 C 21,10 20,6 17,6 H 6 C 4.892,6 4,6.892 4,8"/>
 <rect style="opacity:0.2" width="40" height="26" x="4" y="15" rx="2" ry="2"/>
 <rect style="fill:#f4f4f7" width="36" height="16" x="6" y="13" rx="2" ry="2"/>
 <rect style="fill:#57b8ec" width="40" height="26" x="4" y="16" rx="2" ry="2"/>
 <path style="opacity:0.1;fill:#f4f4f7" d="M 6,6 C 4.892,6 4,6.892 4,8 V 9 C 4,7.892 4.892,7 6,7 H 17 C 20,7 21,11 24,11 H 42 C 43.108,11 44,11.892 44,13 V 12 C 44,10.892 43.108,10 42,10 H 24 C 21,10 20,6 17,6 Z"/>
 <path style="fill:#106796" d="M 22.172,21 C 22.172,21 22.996,21.465 22.414,22.688 21.533,24.53 23.227,24.951 23.227,24.951 23.227,24.951 22.689,24.519 23.406,22.998 24.199,21.313 22.172,21 22.172,21 Z M 25.371,22.84 C 25.371,22.84 23.729,23.47 24.787,25.191 25.487,26.332 24.711,26.898 24.711,26.898 24.711,26.898 26.696,26.335 25.738,24.76 24.878,23.336 25.371,22.84 25.371,22.84 Z M 20.643,22.887 C 20.643,22.887 19.205,23.982 20.629,25.328 21.57,26.224 20.953,27 20.953,27 20.953,27 22.736,25.867 21.447,24.629 20.284,23.512 20.643,22.887 20.643,22.887 Z M 20.953,27 H 17 L 19,35 H 27 L 27.275,33.902 C 27.508,33.96 27.749,34 28,34 29.657,34 31,32.657 31,31 31,29.594 30.03,28.423 28.725,28.098 L 29,27 Z M 28.484,29.062 A 1,2 15 0 1 28.518,29.068 1,2 15 0 1 28.967,31.26 1,2 15 0 1 27.516,32.938 Z"/>
</svg>
